guitar:
  o2
  d4 d a a b b a2
  g4 g f+ f+ e e d2
  a4 a g g f+ f+ e2
  a4 a g g f+ f+ e2
  d4 d a a b b a2
  g4 g f+ f+ e e d2

midi-woodblock:
  r d r a r b r a
  r g r f+ r e r d
  r a r g r f+ r e
  r a r g r f+ r e
  r d r a r b r a
  r g r f+ r e r d

